X: 148112
T: QUICK-STEP
N: There are two #12 tunes in this sequence.
%R: quick-step, jig
B: James Kerr "Merry Melodies" v.1 p.48 s.1 #12
Z: 2016 John Chambers <jc:trillian.mit.edu>
M: 6/8
L: 1/8
K: Amix
|: vguf |\
ve2vc dBG | ABA dcd |\
[1 e2c dBG | B3 B :|\
[2 e2A BAG | A3 A2 |:\
uB |\
vG2vg gfg | efg aed |
e2f gfg |\
[1 B3 G2B | A2g gfg | efg afd |\
e2A BAG | A3 A2 :|\
[2 B3 Ggf | e2c dBG | ABA dcd |\
e2A BAG | A3 A |]

%%sep 1 1 500
%%sep 1 1 500

